build/Karasa-Jaga/scalable/actions/view-paged-symbolic.svg

<svg height="16" width="16" xmlns="http://www.w3.org/2000/svg"><g fill="#bebebe" transform="translate(-161 -867)"><path d="m1 0v1 11 1h1 10 1v-1-11-1h-1-10zm1 1h10v11h-10z" transform="translate(161 867)"/><path d="m15 3v12h-11v1h12v-13z" transform="translate(161 867)"/><g transform="scale(-1 1)"><rect height="1" opacity=".35" rx=".375" width="6" x="-171" y="872"/><rect height="1" opacity=".35" rx=".375" width="6" x="-171" y="874"/><rect height="1" opacity=".35" rx=".375" width="6" x="-171" y="876"/><rect height="1" opacity=".35" rx=".375" width="6" x="-171" y="870"/></g></g></svg>

<?xml version="1.0" encoding="UTF-8" standalone="no"?>
<svg
   xmlns:dc="http://purl.org/dc/elements/1.1/"
   xmlns:cc="http://creativecommons.org/ns#"
   xmlns:rdf="http://www.w3.org/1999/02/22-rdf-syntax-ns#"
   xmlns:svg="http://www.w3.org/2000/svg"
   xmlns="http://www.w3.org/2000/svg"
   xmlns:sodipodi="http://sodipodi.sourceforge.net/DTD/sodipodi-0.dtd"
   xmlns:inkscape="http://www.inkscape.org/namespaces/inkscape"
   height="16"
   width="16"
   version="1.1"
   id="svg14"
   sodipodi:docname="view-paged-symbolic.svg"
   inkscape:version="0.92.4 (unknown)">
  <metadata
     id="metadata20">
    <rdf:RDF>
      <cc:Work
         rdf:about="">
        <dc:format>image/svg+xml</dc:format>
        <dc:type
           rdf:resource="http://purl.org/dc/dcmitype/StillImage" />
        <dc:title></dc:title>
      </cc:Work>
    </rdf:RDF>
  </metadata>
  <defs
     id="defs18" />
  <sodipodi:namedview
     pagecolor="#ffffff"
     bordercolor="#666666"
     borderopacity="1"
     objecttolerance="10"
     gridtolerance="10"
     guidetolerance="10"
     inkscape:pageopacity="0"
     inkscape:pageshadow="2"
     inkscape:window-width="1366"
     inkscape:window-height="706"
     id="namedview16"
     showgrid="true"
     inkscape:zoom="29.5"
     inkscape:cx="5.485642"
     inkscape:cy="10.850747"
     inkscape:window-x="0"
     inkscape:window-y="0"
     inkscape:window-maximized="1"
     inkscape:current-layer="g12">
    <inkscape:grid
       type="xygrid"
       id="grid827" />
  </sodipodi:namedview>
  <g
     fill="#bebebe"
     transform="translate(-161 -867)"
     id="g12">
    <path
       d="M 1 0 L 1 1 L 1 12 L 1 13 L 2 13 L 12 13 L 13 13 L 13 12 L 13 1 L 13 0 L 12 0 L 2 0 L 1 0 z M 2 1 L 12 1 L 12 12 L 2 12 L 2 1 z "
       transform="translate(161,867)"
       id="path2" />
    <path
       d="M 15 3 L 15 15 L 4 15 L 4 16 L 16 16 L 16 3 L 15 3 z "
       transform="translate(161,867)"
       id="path4" />
    <g
       transform="scale(-1 1)"
       id="g10">
      <rect
         height="1"
         rx="0.375"
         width="6"
         x="-171"
         y="872"
         id="rect6"
         style="opacity:0.35" />
      <rect
         height="1"
         rx="0.375"
         width="6"
         x="-171"
         y="874"
         id="rect8"
         style="opacity:0.35" />
      <rect
         style="opacity:0.35"
         id="rect835"
         y="876"
         x="-171"
         width="6"
         rx="0.375"
         height="1" />
      <rect
         style="opacity:0.35"
         id="rect851"
         y="870"
         x="-171"
         width="6"
         rx="0.375"
         height="1" />
    </g>
  </g>
</svg>
